!!!!SEGMENT: Div2001-O_desolatorum_consolator
!!!id: Div2001
!!!AGN: Motet
!!!voices: 4
!!!COM: Antonius Divitis
!!!OTL: O desolatorum consolator
**kern	**kern	**kern	**kern
*part4	*part3	*part2	*part1
*staff4	*staff3	*staff2	*staff1
*I"Bassus	*I"Tenor	*I"Altus	*I"Superius
*I'B	*I'T	*I'A	*I'S
*clefF4	*clefGv2	*clefGv2	*clefG2
*k[b-]	*k[b-]	*k[b-]	*k[b-]
*M2/1	*M2/1	*M2/1	*M2/1
*met(C|)	*met(C|)	*met(C|)	*met(C|)
=1	=1	=1	=1
!!section: Prima pars: O desolatorum consolator
!!!OMD: Prima pars: O desolatorum consolator
0r	0r	1.G	1.g
.	.	2A	2f
=2	=2	=2	=2
0r	0r	2B-y	1g
.	.	1c	.
.	.	.	1a
.	.	4B-y	.
.	.	4A	.
=3	=3	=3	=3
0r	0r	4G	1.b-y
.	.	4A	.
.	.	4B-y	.
.	.	4c	.
.	.	2d	.
.	.	2e	4a
.	.	.	4g
=4	=4	=4	=4
0r	0r	1.f	2.a
.	.	.	4b-y
.	.	.	[1cc
.	.	4e	.
.	.	4d	.
=5	=5	=5	=5
0r	0r	2e	2cc]
.	.	2f	4b-y
.	.	.	4a
.	.	[1g	2.b-y
.	.	.	4a
=6	=6	=6	=6
0r	0r	2g]	2b-y
.	.	1f	1a
.	.	4e	4g
.	.	4d	4f
=7	=7	=7	=7
0r	0r	2c	2e
.	.	2.B-y	2.d
.	.	4c	4e
.	.	4d	4f
.	.	4e	4g
=8	=8	=8	=8
0r	0r	2f	2a
.	.	1e-X	2g
.	.	.	1cc
.	.	4d	.
.	.	4c	.
=9	=9	=9	=9
0r	0r	2e-i	1b-y
.	.	2d	.
.	.	2B-y	2b-y
.	.	[2c	[2a
=10	=10	=10	=10
0r	0r	4c]	2a]
.	.	4B-y	.
.	.	2G	1g
.	.	1A	.
.	.	.	2f#i
=11	=11	=11	=11
1.G	1r	0G	0g
.	[1d	.	.
2G	.	.	.
=12	=12	=12	=12
1F	2d]	0r	0r
.	2d	.	.
1E	1c	.	.
=13	=13	=13	=13
1D	1B-y	0r	0r
[1F	2.A	.	.
.	4B-y	.	.
=14	=14	=14	=14
2F]	2c	0r	0r
4E	1d	.	.
4D	.	.	.
1E	.	.	.
.	2c#i	.	.
=15	=15	=15	=15
1D	0d	0r	0r
2r	.	.	.
[2D	.	.	.
=16	=16	=16	=16
2D]	2r	0r	0r
2D	2A	.	.
2F	1A	.	.
2F	.	.	.
=17	=17	=17	=17
2.C	2c	0r	0r
.	2c	.	.
4D	.	.	.
4E	2.G	.	.
4F	.	.	.
[2G	.	.	.
.	4A	.	.
=18	=18	=18	=18
4G]	4B-y	0r	0r
4F	4c	.	.
4E	1d	.	.
4D	.	.	.
1E	.	.	.
.	2c#i	.	.
=19	=19	=19	=19
0F	0d	0r	0r
=20	=20	=20	=20
1r	1r	1r	1r
1D	1D	1d	1f
=21	=21	=21	=21
1BB-y	1F	1d	1b-y
1BB-y	1F	1d	1b-y
=22	=22	=22	=22
0C	2.E	0c	2a
.	.	.	2g
.	4D	.	.
.	[1G	.	1cc
=23	=23	=23	=23
0GG	2G]	0d	2b-y
.	2A	.	1b-y
.	1B-y	.	.
.	.	.	4a
.	.	.	4g
=24	=24	=24	=24
0D	0A	0d	0f
=25	=25	=25	=25
1r	1r	1r	1r
1D	1A	1d	1f
=26	=26	=26	=26
1BB-y	1B-y	1d	1f
1BB-y	1B-y	1d	1f
=27	=27	=27	=27
1C	1G	1c	1e
1C	1G	1c	1e
=28	=28	=28	=28
4GG	1G	4B-y	1.d
4AA	.	4c	.
4BB-y	.	4d	.
4C	.	4e	.
2.D	2F	1f	.
.	2B-y	.	4f
4E	.	.	4g
=29	=29	=29	=29
2F	2A	[0d	2a
1G	2G	.	1b-y
.	[1B-y	.	.
4F	.	.	4a
4E	.	.	4g
=30	=30	=30	=30
0D	2B-]	0d]	0f
.	4A	.	.
.	4G	.	.
.	1A	.	.
=31	=31	=31	=31
0r	0r	2r	2r
.	.	1g	1b-y
.	.	2f	2a
=32	=32	=32	=32
0r	0r	2e	2g
.	.	2d	2f
.	.	2c	2e
.	.	2c	2e
=33	=33	=33	=33
2r	1r	1B-y	1d
2.G	.	.	.
.	2r	1r	1r
4F	.	.	.
4E	[2c	.	.
4D	.	.	.
=34	=34	=34	=34
2E	4c]	0r	0r
.	4B-y	.	.
1F	4A	.	.
.	4G	.	.
.	2A	.	.
4E	[2d	.	.
4D	.	.	.
=35	=35	=35	=35
2E	2d]	0r	0r
2F	2c	.	.
4BB-y	2.d	.	.
4C	.	.	.
4D	.	.	.
4E	4d	.	.
=36	=36	=36	=36
2F	2c	0r	0r
1G	1B-y	.	.
4F	4A	.	.
4E	4G	.	.
=37	=37	=37	=37
2.D	4F	0r	0r
.	4G	.	.
.	4A	.	.
4BB-y	4B-y	.	.
2E-i	2c	.	.
2D	2B-y	.	.
=38	=38	=38	=38
2C	2A	0r	0r
2BB-y	1G	.	.
2AA	.	.	.
2AA	2F#i	.	.
=39	=39	=39	=39
1GG	1G	1r	1r
2r	2r	2r	2r
[2C	[2G	[2c	[2e
=40	=40	=40	=40
2C]	2G]	2c]	2e]
2C	2G	2c	2e
2F	2A	2c	2f
2F	2A	2c	2f
=41	=41	=41	=41
1C	1G	1c	1e
2r	2r	2r	2r
2C	2c	2e	2e
=42	=42	=42	=42
2.F	2.c	2.f	2.a
4E	4c	4g	4g
2F	2c	2f	2a
2G	2B-y	2d	2g
=43	=43	=43	=43
2.C	1c	2e	2.e
.	.	1g	.
4D	.	.	4f
2E	2r	.	2g
2F	[2c	[2f	2a
=44	=44	=44	=44
1G	2c]	2f]	2g
.	4B-y	4e	1b-y
.	4A	4d	.
1G	1B-y	1e	.
.	.	.	4a
.	.	.	4g
=45	=45	=45	=45
0F	0c	0f	0a
=46	=46	=46	=46
2r	1r	0r	0r
2D	.	.	.
1E	2r	.	.
.	2G	.	.
=47	=47	=47	=47
1F	1A	0r	0r
1G	1B-y	.	.
=48	=48	=48	=48
2C	1c	0r	0r
1F	.	.	.
.	2F	.	.
4E	[2B-y	.	.
4D	.	.	.
=49	=49	=49	=49
1E	2B-]	0r	0r
.	4A	.	.
.	4G	.	.
2D	1A	.	.
[2F	.	.	.
=50	=50	=50	=50
2F]	2G	0r	0r
2E	1c	.	.
1D	.	.	.
.	2B-y	.	.
=51	=51	=51	=51
2r	1A	0r	0r
1C	.	.	.
.	2r	.	.
2BB-y	[2G	.	.
=52	=52	=52	=52
2AA	2G]	0r	0r
2AA	2F	.	.
2GG	2G	.	.
[2G	[2B-y	.	.
=53	=53	=53	=53
2G]	2B-]	0r	0r
4F	4A	.	.
4E	4G	.	.
2.F	1A	.	.
4G	.	.	.
=54	=54	=54	=54
0GG	0G	1r	1d
.	.	1G	1g
=55	=55	=55	=55
0r	0r	1c	2g
.	.	.	2.a
.	.	2c	.
.	.	.	4g
.	.	[2d	4f
.	.	.	4e
=56	=56	=56	=56
0r	0r	2d]	2f
.	.	4c	2g
.	.	4B-y	.
.	.	1c	1e
=57	=57	=57	=57
1r	1r	2.d	1d
.	.	4c	.
2r	2r	2d	1r
2G	2B-y	2e	.
=58	=58	=58	=58
2.A	2.c	2.f	1r
4G	4B-y	4e	.
2F	2A	2d	2r
2E	2G	2c	2g
=59	=59	=59	=59
0D	1B-y	0d	2g
.	.	.	4f
.	.	.	4e
.	1A	.	1f
=60	=60	=60	=60
2r	2r	2r	2r
1G	2G	1g	1b-y
.	1B-y	.	.
2G	.	2g	2b-y
=61	=61	=61	=61
2A	2c	2f	2a
2A	2c	2f	2a
1G	1d	1g	1b-y
=62	=62	=62	=62
2r	2r	2r	2r
2G	2d	2g	2b-y
2A	2c	2e	2cc
2F	2d	2f	[2a
=63	=63	=63	=63
2G	2B-y	2d	2a]
2E	2G	2c	1g
1D	1A	1d	.
.	.	.	2f#i
=64	=64	=64	=64
2r	2G	2r	2g
1G	1d	1g	1b-y
2G	2d	2g	2b-y
=65	=65	=65	=65
2A	2c	2f	2cc
2A	2c	2f	2cc
1G	1d	1g	1b-y
=66	=66	=66	=66
2r	2r	2r	2r
2G	2d	2g	2b-y
2A	2c	2e	2cc
2F	2d	2f	[2a
=67	=67	=67	=67
2G	2B-y	2d	4a]
.	.	.	4g
2E	2G	2c	1g
1D	1A	1d	.
.	.	.	2f#i
=68	=68	=68	=68
0GGl	0Gl	0dl	0gl
=69||	=69||	=69||	=69||
*M2/1	*M2/1	*M2/1	*M2/1
*met(C|)	*met(C|)	*met(C|)	*met(C|)
!!section: Secunda pars: Beate Claudi
!!!OMD: Secunda pars: Beate Claudi
1r	0G	0r	0r
[1C	.	.	.
=70	=70	=70	=70
1C]	1E	0r	0r
1AA	1F	.	.
=71	=71	=71	=71
1BB-y	1G	0r	0r
1C	1G	.	.
=72	=72	=72	=72
1C	2r	0r	0r
.	2G	.	.
2r	1G	.	.
2C	.	.	.
=73	=73	=73	=73
1C	2G	0r	0r
.	2G	.	.
2C	1A	.	.
2C	.	.	.
=74	=74	=74	=74
1C	2G	0r	0r
.	1c	.	.
1D	.	.	.
.	2B-y	.	.
=75	=75	=75	=75
2C	2.c	0r	0r
2.F	.	.	.
.	4B-y	.	.
.	2c	.	.
4E	.	.	.
2F	2d	.	.
=76	=76	=76	=76
2G	2B-y	0r	0r
2E	2c	.	.
2F	2A	.	.
2D	[2B-y	.	.
=77	=77	=77	=77
2E	2B-]	0r	0r
1G	4A	.	.
.	4G	.	.
.	1A	.	.
2F#i	.	.	.
=78	=78	=78	=78
0G	[0G	0r	0r
=79	=79	=79	=79
1r	0G]	1.d	0b-y
1G	.	.	.
.	.	2B-y	.
=80	=80	=80	=80
1F	1r	1c	1a
1E	1G	1c	1g
=81	=81	=81	=81
1D	1A	1d	1f
1D	1A	1d	1f
=82	=82	=82	=82
0BB-y	2.B-y	1.d	1b-y
.	4B-y	.	.
.	1B-y	.	1b-y
.	.	2e	.
=83	=83	=83	=83
1F	1c	1f	1a
2r	2r	2r	2r
2F	2c	2f	2a
=84	=84	=84	=84
1F	2c	2.f	1a
.	2A	.	.
.	.	4e	.
1G	1B-y	1d	2.g
.	.	.	4f
=85	=85	=85	=85
1C	2G	1c	1e
.	2.A	.	.
2C	.	2c	2e
.	4G	.	.
[2D	[2F	[2B-y	[2f
=86	=86	=86	=86
4D]	2F]	2B-]	4f]
4AA	.	.	4e
2C	1E	1A	2c
1BB-y	.	.	1d
.	2D	2G	.
=87	=87	=87	=87
0AA	1.E	2A	1c
.	.	2.c	.
.	.	.	1cc
.	.	4B-y	.
.	[2F	[2A	.
=88	=88	=88	=88
1r	2F]	2A]	1cc
.	4E	4G	.
.	4D	4F	.
1C	1E	1G	1cc
=89	=89	=89	=89
1C	1r	1r	1g
1C	1G	1c	1g
=90	=90	=90	=90
1GG	1G	1d	1b-y
1GG	1G	[1d	1b-y
=91	=91	=91	=91
1BB-y	1D	2d]	1f
.	.	1d	.
1BB-y	1D	.	1g
.	.	4c	.
.	.	4B-y	.
=92	=92	=92	=92
2.FF	2.F	2.A	0a
4GG	4E	8GL	.
.	.	8FJ	.
2AA	1C	2E	.
2FF	.	[2A	.
=93	=93	=93	=93
2.F	1r	4A]	2r
.	.	4G	.
.	.	4A	1cc
4G	.	4B-y	.
4A	2r	4c	.
4F	.	4d	.
[2G	[2G	[2e	[2b-y
=94	=94	=94	=94
2G]	2G]	2e]	2b-]
2F	2A	1d	2a
1E	2B-y	.	1g
.	2G	2c#i	.
=95	=95	=95	=95
[0D	1.A	[0d	[0f
.	[2B-y	.	.
=96	=96	=96	=96
0D]	2B-]	1d]	0f]
.	4A	.	.
.	4G	.	.
.	1A	1r	.
=97	=97	=97	=97
0r	0r	0g	0b-y
=98	=98	=98	=98
0r	0r	1f	1a
.	.	1e	1g
=99	=99	=99	=99
0r	0r	2d	2b-y
.	.	2d	2b-y
.	.	1f	1a
=100	=100	=100	=100
0r	0r	2e	2g
.	.	1d	2f
.	.	.	1e
.	.	2c#i	.
=101	=101	=101	=101
0G	0B-y	0d	0d
=102	=102	=102	=102
1F	1c	0r	0r
1E	1c	.	.
=103	=103	=103	=103
1D	2d	0r	0r
.	2D	.	.
2r	2F	.	.
[2A	2F	.	.
=104	=104	=104	=104
2A]	1E	0r	0r
1G	.	.	.
.	2D	.	.
2F	[2c	.	.
=105	=105	=105	=105
1G	2c]	0r	0r
.	2B-y	.	.
2C	4c	.	.
.	4B-y	.	.
[2D	4A	.	.
.	4G	.	.
=106	=106	=106	=106
2D]	2F	0r	0r
4C	1B-y	.	.
4BB-y	.	.	.
1C	.	.	.
.	2A	.	.
=107	=107	=107	=107
0BB-y	0B-y	0r	0r
=108	=108	=108	=108
1r	1r	1r	1r
1BB-y	1B-y	1d	1f
=109	=109	=109	=109
1BB-y	1B-y	1d	1f
1BB-y	1F	1d	1f
=110	=110	=110	=110
1BB-y	1B-y	1d	1f
1BB-y	1B-y	1d	1f
=111	=111	=111	=111
1C	1G	1c	1e
1C	1G	1c	1e
=112	=112	=112	=112
[0GG	[0G	[0B-y	0d
=113	=113	=113	=113
0GG]	0G]	0B-]	1r
.	.	.	1d
=114	=114	=114	=114
0r	0r	1G	1e
.	.	1A	1f
=115	=115	=115	=115
0r	0r	1B-y	1g
.	.	1c	[1a
=116	=116	=116	=116
0r	0r	1.d	2a]
.	.	.	2a
.	.	.	1a
.	.	2d	.
=117	=117	=117	=117
0r	0r	2.d	2b-y
.	.	.	1a
.	.	4e	.
.	.	2f	.
.	.	2g	[2dd
=118	=118	=118	=118
0r	0r	1e	2dd]
.	.	.	2cc
.	.	2d	4b-y
.	.	.	4a
.	.	[2f	[2a
=119	=119	=119	=119
0r	0r	2f]	2a]
.	.	4e	4g
.	.	4d	4f
.	.	1c	1e
=120	=120	=120	=120
1r	1r	1d	1d
1D	1F	1d	1a
=121	=121	=121	=121
2D	2F	2d	2a
1D	1F	1d	1a
2BB-y	4E	2d	2b-y
.	4D	.	.
=122	=122	=122	=122
2AA	2E	1c	2cc
2C	1A	.	2a
1BB-y	.	1r	1dd
.	2G	.	.
=123	=123	=123	=123
[0AA	[0A	4A	1.cc
.	.	4B-y	.
.	.	4c	.
.	.	4d	.
.	.	2e	.
.	.	2f	[2a
=124	=124	=124	=124
0AA]	0A]	2e	2a]
.	.	1d	4g
.	.	.	4f
.	.	.	1e
.	.	2c#i	.
=125	=125	=125	=125
1D	2A	2d	1d
.	1d	1f	.
[1F	.	.	1a
.	4c	4e	.
.	4B-y	4d	.
=126	=126	=126	=126
1F]	1A	2c	1a
.	.	2f	.
1G	2G	2e	1b-y
.	[2B-y	[2d	.
=127	=127	=127	=127
1E	4B-]	2d]	1g
.	4A	.	.
.	4G	4c	.
.	4F	4B-y	.
1E	1G	1c	1g
=128	=128	=128	=128
0D	1A	0d	0f
.	1F	.	.
=129	=129	=129	=129
*M3/1	*M3/1	*M3/1	*M3/1
*met(C|3)	*met(C|3)	*met(C|3)	*met(C|3)
0BB-y	0F	0d	0b-y
1BB-y	1G	1d	1b-y
=130	=130	=130	=130
1.C	1.E	0e	0g
2C	2F	.	.
1C	1G	1e	1g
=131	=131	=131	=131
1.AA	1.A	1.c	1.cc
2BB-y	2G	2d	2b-y
1C	1c	1e	2a
.	.	.	2g
=132	=132	=132	=132
0D	0A	0d	1.f
.	.	.	2e
1D	1A	1d	1f
=133	=133	=133	=133
1BB-y	1B-y	1d	1.g
1C	1A	1e	.
.	.	.	4f#i
.	.	.	4e
1D	1A	1d	1f#i
=134	=134	=134	=134
0GG	0G	0B-y	0g
1r	1r	[1d	1r
=135	=135	=135	=135
0G	0B-y	1d]	0.r
.	.	1B-y	.
1E	1G	1c	.
=136	=136	=136	=136
1F	1A	1d	0.r
1G	1B-y	1e	.
[1A	[1c	[1f	.
=137	=137	=137	=137
2A]	2c]	2f]	0.r
2G	2B-y	2e	.
1F	1A	1d	.
1E	1G	1c#i	.
=138	=138	=138	=138
0D	0F	1d	1a
.	.	1d	1f
1r	1r	1B-y	1g
=139	=139	=139	=139
1r	1A	1c	1a
1D	1F	0d	1r
1BB-y	1G	.	1r
=140	=140	=140	=140
1C	2A	1c	1e
.	2G	.	.
1D	2F	1A	1f
.	2E	.	.
1GG	1D	1B-y	[1g
=141	=141	=141	=141
1BB-y	0G	1B-y	1g]
0AA	.	0c	0a
.	1F#i	.	.
=142	=142	=142	=142
1GG	1G	1B-y	1b-y
1D	1F	0d	1.a
1E	1G	.	.
.	.	.	2g
=143	=143	=143	=143
1E	1G	1c	0g
0D	0A	0d	.
.	.	.	1f#i
=144	=144	=144	=144
*M2/1	*M2/1	*M2/1	*M2/1
*met(C|)	*met(C|)	*met(C|)	*met(C|)
1GG	1G	1d	1g
1r	1r	1r	1r
=145	=145	=145	=145
0GG	0G	0d	0b-y
=146	=146	=146	=146
1D	1F	1d	1a
1D	1F	1d	1a
=147	=147	=147	=147
0E-i	1.G	1B-y	0g
.	.	1c	.
.	2A	.	.
=148	=148	=148	=148
0BB-y	0B-y	0d	0f
=149	=149	=149	=149
1r	1r	1r	1r
1BB-y	1F	[1d	1b-y
=150	=150	=150	=150
1D	1F	2d]	1a
.	.	2e	.
1D	1F	2f	1a
.	.	2d	.
=151	=151	=151	=151
1C	1.G	1e	1cc
1C	.	1e	1cc
.	2A	.	.
=152	=152	=152	=152
1.BB-y	1.B-y	1d	1dd
.	.	[1f	2dd
2AA	2c	.	[2cc
=153	=153	=153	=153
1BB-y	2d	1f]	4cc]
.	.	.	4b-y
.	2B-y	.	1b-y
1F	1c	1f	.
.	.	.	2a
=154	=154	=154	=154
1.BB-y	[0B-y	0d	0b-y
2GG	.	.	.
=155	=155	=155	=155
0GG	0B-]	1r	1r
.	.	1g	1b-y
=156	=156	=156	=156
0r	0r	1f	1a
.	.	1e	1g
=157	=157	=157	=157
0r	0r	2.d	1b-y
.	.	4e	.
.	.	2f	2a
.	.	[2e	[2g
=158	=158	=158	=158
0r	0r	2e]	2g]
.	.	1d	2f
.	.	.	1e
.	.	2c#i	.
=159	=159	=159	=159
[1GG	1r	0d	0d
2GG]	[1D	.	.
2AA	.	.	.
=160	=160	=160	=160
2BB-y	2D]	0r	0r
2C	2E	.	.
2D	2F	.	.
2E	2G	.	.
=161	=161	=161	=161
2F	2A	0r	0r
2G	2B-y	.	.
1E	1c	.	.
=162	=162	=162	=162
3%4.D	3%4.d	0r	0r
=163	=163	=163	=163
3%4G	3%4d	3%4g	3%4b-y
3%2G	3%2d	3%2g	3%2b-y
=164	=164	=164	=164
3%2A	3%2c	3%2e	3%2cc
3%2F	3%2c	3%2f	3%2.a
3%2G	3%2B-y	3%2d	.
.	.	.	3g
=165	=165	=165	=165
3%2E	3%2G	3%2c	3%4g
3%4D	3%4A	3%4d	.
.	.	.	3%2f#i
=166	=166	=166	=166
0GGl	0Gl	0dl	0gl
==	==	==	==
*-	*-	*-	*-
!!!system-decoration: s1,s2,s3,s4
!!!RDF**kern: i = editorial accidental
!!!RDF**kern: l = terminal long
!!!ENC: Janosch Umbreit
!!!END: 2026/03/13
!!!EED: Benjamin Ory
!!!EEV: 2026/03/17
!!!YEC: Copyright 2026 Benjamin Ory, All Rights Reserved
!!!ONB: Translated from MusicXML on 2026/03/17
